X: 12090
T: Ettrick
R: reel
M: 4/4
K: Gmixolydian
|:d3 B cBGB|cAFA cAFA|d3 B cBGB|1 cAFA G2 ^c2:|2 cAFA G2 GD||
|:GdBd gdBd|fAcf AcfA|GdBd gdBd|f/e/dcA G2 GF|
GdBd gdBd|fAcf Acf^f|gGfG eGdG|1 f/e/dcA G2 GF:|2 f/e/dcA G2 ^c2||

